X: 03805
T: Lancers "Oriental"
T: Figure V
B: Henry Ford's "Good Morning"
Z: 2011 John Chambers <jc:trillian.mit.edu>
N: Record No.106
R: reel, march
M: 2/4
L: 1/8
K: D
[d/F/]H[d3F3] !Segno!|| ((3A/B/A/) |:\
"D"[fA][fA][eG][dF] | "A7"[dG]>[cG] [cG] ((3A/B/A/) |\
"A7"[gcA][geA][fdA][ecG] | "D"[a3f3d3A3] ((3fg^g) | "D"a[aA] [bB]>[fF] |
"Em"[aA][gG][gG] [e/E/][f/F/] |1 "A7"[gG][^g^G] [aA]>[eE] | "D"[f3F3] ((3A/B/A/) :|\
[2 "A7"[gG][bB][aA][cG] | "D"[dF]z [dF]Hz [|\
[K: A] "A"e/f/e/d/ ce | [ac][ec] [c'2-c2-] |
"E7"[c'c]b/c'/ d'g | "A"[bc][ac] [e2c2] |\
e/f/e/d/ ce | [ac][ec] [c'2-c2-] |\
"E7"[c'c]b/c'/ d'[gd] | "A"[ac]z"A7"[a=gcA] ((3A/B/A/ |]
K: D
[| "D"[fA][fA][eG][dF] | "A7"[dG]>[cG] [cG]((3A/B/A/) |\
"A7"[gcA][geA][fdA][ecG] | "D"[a3f3d3A3] ((3f/g/^g/) |\
"D"a[aA] [bB]>[fF] | "Em"[aA][^g^G][=g=G]B |
"A7"((3A/B/A/)^G/A/ [fA][e=G] | "D"[dF]z [dF]z "March"|[|[K:G]\
"G"k[g2d2B2G2] B>d | k[g2d2B2G2] kB>d |\
k[gdBG]Bd[gG] | [bB]>[aA] [g2G2] |
"D7"[a2d2c2A2] [dD]>[eE] | [fF][gF][aA][bB] |\
[c'c]>[bB] [c'c]>[bB]  | [c'c]>[aA] [fF][dD] |\
"G"k[g2d2B2G2] B>d | k[g2d2B2G2] kB>d |
k[gdBG]Bd[gG] | [bB]>[aA] [g2G2] |\
"Am"[e2E2] [c'c]>[bB] | [aA][gG][fF][eE] |\
"G"[dD][b/B/][b/B/] "D7"c[a/A/][a/A/] | "G"[gG]z "D.S."[gBG] !Segno!|]


%%sep 5 1 500

